X: 929
T: The Tenpenny Bit. 1st Setting.
B:O'Neill's 929
N:"collected by Beamish."
Z:Transcribed by Tom Keays (htkeays@mailbox.syr.edu)
Z:abc 1.6
M:6/8
R:Jig
L:1/8
K:Am
e | eAA ^GAA | Bdd Bdd | eAA ^GAA | BAA A2 e |
eAA ^GAA | Bdd Bdd | g^fe edB | BAA A2 :|
|| d | e2 ^f gfg | eag fed | e2 ^f gfg | e^f^g a2 a |
baa a^ff | g^fe def | g^fe edB | BAA A2 :|


